X:0139
T:2d. Quick Step of 15th. Regt.
M:6/8
L:1/8
Q:3/8=84
I: :: :: :: ::
Z:Jack Campin * www.campin.me.uk * 2009
K:D
d2A Bcd|gfe fdA|d2A Bcd|gfe d3:|
ege faf|ged cBA|ege faf|edc d3:|
FGA Bcd|fge ddd|FGA Bcd|fge d3:|
a2f g2e|fed cde|a2f g2e|fge d3:|
<end>
<start>
